icons/midnadark/actions/24/edit-bomb.svg

<svg xmlns="http://www.w3.org/2000/svg" viewBox="0 0 22 22"><g transform="matrix(.17213 0 0 .17213 2.62 2.628)" fill="#fff"><path d="m76.17 21.449c-7.803-1.021-7.188 6.1-8.719 11.448-.799 2.797-4.264 1.256-6.268 1.079-1.664-.148-3.312-.009-4.754.725-5.978-5.064-13.704-8.125-22.15-8.125-18.932 0-34.28 15.348-34.28 34.28 0 18.934 15.35 34.28 34.28 34.28 18.931 0 34.28-15.349 34.28-34.28 0-8.524-3.119-16.315-8.269-22.312.779-.081 1.688-.041 2.783.168 2.683.511 5.267.126 7.142-1.957 1.469-1.632 1.817-3.988 2.088-6.077.375-2.903.309-5.336 3.862-4.872 2.783.364 2.748-3.999.002-4.358"/><path d="m61.13 15.369c.504 1.093 1.801 1.57 2.893 1.066 1.091-.502 1.568-1.799 1.066-2.892l-4.654-10.09c-.504-1.093-1.799-1.57-2.894-1.066-.356.165-.649.417-.864.719-.435.615-.537 1.438-.199 2.171l4.652 10.09"/><path d="m75.17 16.482c1.088.513 2.385.046 2.9-1.042l4.739-10.05c.514-1.089.049-2.388-1.041-2.9-.972-.458-2.109-.137-2.709.71-.07.103-.136.213-.191.331l-4.74 10.05c-.513 1.088-.048 2.387 1.042 2.9"/><path d="m97.25 21.11c-.307-1.165-1.498-1.859-2.66-1.553l-10.748 2.829c-.516.136-.938.446-1.223.85-.361.507-.5 1.166-.33 1.813.307 1.164 1.498 1.858 2.664 1.552l10.744-2.831c1.164-.304 1.86-1.497 1.553-2.66"/><path d="m92.42 41.906l-9.07-6.413c-.983-.694-2.344-.461-3.037.521-.694.983-.461 2.343.523 3.037l9.07 6.413c.982.695 2.342.461 3.037-.521.694-.984.461-2.343-.523-3.037"/></g></svg>

<?xml version="1.0" encoding="UTF-8" standalone="no"?>
<!-- Created with Inkscape (http://www.inkscape.org/) -->

<svg
   xmlns:dc="http://purl.org/dc/elements/1.1/"
   xmlns:cc="http://creativecommons.org/ns#"
   xmlns:rdf="http://www.w3.org/1999/02/22-rdf-syntax-ns#"
   xmlns:svg="http://www.w3.org/2000/svg"
   xmlns="http://www.w3.org/2000/svg"
   xmlns:sodipodi="http://sodipodi.sourceforge.net/DTD/sodipodi-0.dtd"
   xmlns:inkscape="http://www.inkscape.org/namespaces/inkscape"
   width="22"
   height="22"
   id="svg3869"
   version="1.1"
   inkscape:version="0.91 r13725"
   sodipodi:docname="edit-bomb.svg">
  <defs
     id="defs3871" />
  <sodipodi:namedview
     id="base"
     pagecolor="#ffffff"
     bordercolor="#666666"
     borderopacity="1.0"
     inkscape:pageopacity="0.0"
     inkscape:pageshadow="2"
     inkscape:zoom="8"
     inkscape:cx="-18.957843"
     inkscape:cy="11.216126"
     inkscape:document-units="px"
     inkscape:current-layer="layer1-0"
     showgrid="true"
     fit-margin-top="0"
     fit-margin-left="0"
     fit-margin-right="0"
     fit-margin-bottom="0"
     inkscape:window-width="1366"
     inkscape:window-height="633"
     inkscape:window-x="0"
     inkscape:window-y="33"
     inkscape:window-maximized="1"
     inkscape:showpageshadow="false"
     inkscape:object-nodes="true"
     inkscape:snap-bbox="true">
    <inkscape:grid
       type="xygrid"
       id="grid4132" />
    <sodipodi:guide
       position="4,18"
       orientation="18,0"
       id="guide4138" />
    <sodipodi:guide
       position="5,3"
       orientation="0,18"
       id="guide4140" />
    <sodipodi:guide
       position="20,2.0000174"
       orientation="-18,0"
       id="guide4142" />
    <sodipodi:guide
       position="2,21"
       orientation="0,-18"
       id="guide4144" />
    <sodipodi:guide
       position="3,19.000017"
       orientation="16,0"
       id="guide4146" />
    <sodipodi:guide
       position="2,4"
       orientation="0,16"
       id="guide4148" />
    <sodipodi:guide
       position="21,20"
       orientation="-16,0"
       id="guide4150" />
    <sodipodi:guide
       position="2,20"
       orientation="0,-16"
       id="guide4152" />
  </sodipodi:namedview>
  <metadata
     id="metadata3874">
    <rdf:RDF>
      <cc:Work
         rdf:about="">
        <dc:format>image/svg+xml</dc:format>
        <dc:type
           rdf:resource="http://purl.org/dc/dcmitype/StillImage" />
        <dc:title />
      </cc:Work>
    </rdf:RDF>
  </metadata>
  <g
     inkscape:label="Capa 1"
     inkscape:groupmode="layer"
     id="layer1"
     transform="translate(-326,-534.3622)">
    <g
       transform="translate(326.11902,-496.42926)"
       id="layer1-6"
       inkscape:label="Capa 1">
      <g
         transform="translate(4.470291e-6,1.0986573e-6)"
         id="layer1-0"
         inkscape:label="Capa 1">
        <g
           style="fill:#ffffff;fill-opacity:1"
           transform="matrix(0.17213207,0,0,0.17213207,2.5046399,1033.4152)"
           id="g4196-5">
          <g
             style="fill:#ffffff;fill-opacity:1"
             id="g4146-8">
            <g
               style="fill:#ffffff;fill-opacity:1"
               id="g4148-5">
              <path
                 style="fill:#ffffff;fill-opacity:1"
                 inkscape:connector-curvature="0"
                 d="m 76.17,21.449 c -7.803,-1.021 -7.188,6.1 -8.719,11.448 -0.799,2.797 -4.264,1.256 -6.268,1.079 -1.664,-0.148 -3.312,-0.009 -4.754,0.725 C 50.451,29.637 42.725,26.576 34.281,26.576 15.349,26.576 0,41.924 0,60.857 c 0,18.934 15.35,34.281 34.281,34.281 18.931,0 34.281,-15.349 34.281,-34.281 0,-8.524 -3.119,-16.315 -8.269,-22.312 0.779,-0.081 1.688,-0.041 2.783,0.168 2.683,0.511 5.267,0.126 7.142,-1.957 1.469,-1.632 1.817,-3.988 2.088,-6.077 0.375,-2.903 0.309,-5.336 3.862,-4.872 2.783,0.364 2.748,-3.999 0.002,-4.358 z"
                 id="path4150-2"
                 sodipodi:nodetypes="ccccssssccsccc" />
              <path
                 style="fill:#ffffff;fill-opacity:1"
                 inkscape:connector-curvature="0"
                 d="m 61.131,15.369 c 0.504,1.093 1.801,1.57 2.893,1.066 1.091,-0.502 1.568,-1.799 1.066,-2.892 L 60.436,3.453 C 59.932,2.36 58.637,1.883 57.542,2.387 57.186,2.552 56.893,2.804 56.678,3.106 56.243,3.721 56.141,4.544 56.479,5.277 l 4.652,10.092 z"
                 id="path4152-1" />
              <path
                 style="fill:#ffffff;fill-opacity:1"
                 inkscape:connector-curvature="0"
                 d="m 75.166,16.482 c 1.088,0.513 2.385,0.046 2.9,-1.042 L 82.805,5.39 C 83.319,4.301 82.854,3.002 81.764,2.49 80.792,2.032 79.655,2.353 79.055,3.2 78.985,3.303 78.919,3.413 78.864,3.531 l -4.74,10.051 c -0.513,1.088 -0.048,2.387 1.042,2.9 z"
                 id="path4154-0" />
              <path
                 style="fill:#ffffff;fill-opacity:1"
                 inkscape:connector-curvature="0"
                 d="m 97.252,21.11 c -0.307,-1.165 -1.498,-1.859 -2.66,-1.553 l -10.748,2.829 c -0.516,0.136 -0.938,0.446 -1.223,0.85 -0.361,0.507 -0.5,1.166 -0.33,1.813 0.307,1.164 1.498,1.858 2.664,1.552 L 95.699,23.77 c 1.164,-0.304 1.86,-1.497 1.553,-2.66 z"
                 id="path4156-7" />
              <path
                 style="fill:#ffffff;fill-opacity:1"
                 inkscape:connector-curvature="0"
                 d="m 92.422,41.906 -9.074,-6.413 c -0.983,-0.694 -2.344,-0.461 -3.037,0.521 -0.694,0.983 -0.461,2.343 0.523,3.037 l 9.074,6.413 c 0.982,0.695 2.342,0.461 3.037,-0.521 0.694,-0.984 0.461,-2.343 -0.523,-3.037 z"
                 id="path4158-7" />
            </g>
          </g>
          <g
             style="fill:#ffffff;fill-opacity:1"
             id="g4160-4" />
          <g
             style="fill:#ffffff;fill-opacity:1"
             id="g4162-8" />
          <g
             style="fill:#ffffff;fill-opacity:1"
             id="g4164-0" />
          <g
             style="fill:#ffffff;fill-opacity:1"
             id="g4166-2" />
          <g
             style="fill:#ffffff;fill-opacity:1"
             id="g4168-5" />
          <g
             style="fill:#ffffff;fill-opacity:1"
             id="g4170-2" />
          <g
             style="fill:#ffffff;fill-opacity:1"
             id="g4172-6" />
          <g
             style="fill:#ffffff;fill-opacity:1"
             id="g4174-2" />
          <g
             style="fill:#ffffff;fill-opacity:1"
             id="g4176-3" />
          <g
             style="fill:#ffffff;fill-opacity:1"
             id="g4178-0" />
          <g
             style="fill:#ffffff;fill-opacity:1"
             id="g4180-2" />
          <g
             style="fill:#ffffff;fill-opacity:1"
             id="g4182-4" />
          <g
             style="fill:#ffffff;fill-opacity:1"
             id="g4184-7" />
          <g
             style="fill:#ffffff;fill-opacity:1"
             id="g4186-8" />
          <g
             style="fill:#ffffff;fill-opacity:1"
             id="g4188-9" />
        </g>
      </g>
    </g>
  </g>
</svg>
